X:1
T:Andante Grazioso
T:Wolfgang Amadeus Mozart (1756-1791) Arr: Hans-Günter Heumann 
C:Wolfgang Amadeus Mozart
%%score 1 2 3
L:1/8
Q:1/4=90
M:3/4
K:C
V:1 treble nm="Piano"
V:2 bass nm="Piano"
V:3 perc stafflines=1 nm="Wood Blocks"
K:none
I:percmap D A 77 normal
I:percmap F c 76 normal
V:1
 z6 |!p! (B3 c B2) | d4 d2 | (A3 B A2) | c4 c2 | G4 G2 | A4 A2 | B4 (dc) |!p! (B4 A2) | (B3 c B2) | %10
 d4 d2 | (A3 B A2) | c4 c2 | G4 A2 | B4 c2 |!p! B4 A2 | G4 z2 |] %17
V:2
 z6 | (G,3 A, G,2) | B,6 | D6 | A,6 | B,6 | C6 | D2 G,2 A,2 | D6 | (G,3 A, G,2) | B,6 | D6 | A,6 | %13
 B,4 C2 | D2 G,2 A,2 | D4 C2 | [G,B,]4 z2 |] %17
V:3
 F2 D2 D2 | z6 | z6 | z6 | z6 | z6 | z6 | z6 | z6 | z6 | z6 | z6 | z6 | z6 | z6 | z6 | z6 |] %17

